X:60
T:Picking of Sticks
T:Lavena
T:Pop Goes the Weasel
T:Ring Around the Rosy
C:John Playford, 1651
M:6/8
L:1/8
P:A(Lavena)
K:Gm clef=treble
[||: g 
%Error : Bar 2 is 1/8 not 6/8
| "Gm"g2g "D7"^f>=ef | "Gm"g2g d2d | "Eb"g2g "D7"^f>=ef | "Gm"g3 d2_e | \
"Cm"e>gf "F7"e>fe | "Bb"d>ed "F"c>BA | "Gm"B>cd "Cm"c>dB | "D7"A3 "Gm"G2 :|
P:B(Picking Up Sticks)
K:Dmaj clef=treble

%Error : Bar 11 is 5/8 not 6/8
[||: "D"a2a aba | "G"g2e e2f | "A"g2g gag |1,3 "D"f2d dfg :|2 "D"a2d d2a 
%Warning : No repeat expected, found :|
:|4 "D"a2d d2A 
%Warning : No repeat expected, found :|
:|
P:C(Pop Goes the Weasel)
[||: "D"d2d "A"e2e | "D"faf d2A | "D"d2d "A"e2g | "D"f3 d2A | \
"D"d2d "A"e2e | "D"faf d3 | "G"b3 "A"e2g | "D"f3 d3 :|
P:D(Ring Around the Rosy)
[||: "D"a2a f2b | a3 f2f | a2a f2b | a3 f2g | "A"g2g e2e | g2g e2e \
|1 a2g f2e | a3-a3 \
:|2 "Em"fga "A"b2c' | "D"d'3 a3 |]

